assets/2023/icons/gleam_dark.svg

<svg width="16" height="16" viewBox="0 0 167 152" fill="none"
  xmlns="http://www.w3.org/2000/svg">
  <g clip-path="url(#clip0_442_3046)">
    <path d="M104.98 81.3409C103.62 81.8609 102.881 82.2709 102.081 82.4209C99.8305 82.8509 97.5605 83.1409 95.3105 83.5709C94.5305 83.7209 93.8105 84.2609 93.0305 84.3309C92.2305 84.4009 91.4005 84.1209 90.2505 83.9409C89.7405 83.5309 88.9605 82.9009 88.0705 82.1909C88.3905 80.8509 89.0405 79.5209 88.4805 78.2209C89.2505 76.7309 89.9505 75.3609 90.7205 73.8709C92.0005 73.6609 93.2705 73.4909 94.5105 73.2509C95.4805 73.0609 96.4205 72.9109 97.3105 72.3109C98.4005 71.5709 99.6805 71.4309 100.74 71.9609C101.68 71.6509 102.59 71.0109 103.21 71.2209C104.51 71.6609 105.73 71.5109 106.99 71.3609C108.53 71.1809 110.05 70.6509 111.59 71.4409C111.92 71.6109 112.431 71.4209 112.861 71.3709C114.281 71.2009 115.75 70.7009 117.1 70.9309C118.39 71.1509 119.61 71.1009 120.88 71.1009C121.56 71.1009 122.24 71.3309 122.98 71.4709C123.79 71.1109 124.671 70.7309 125.611 70.3109C126.401 70.7609 127.14 71.1709 127.88 71.5909C128.67 70.5609 130.001 70.2009 130.941 70.5609C132.271 71.0709 133.451 70.7309 134.701 70.7409C135.251 70.7409 135.801 70.9209 136.531 71.0409C136.691 70.9309 137.03 70.7109 137.52 70.3809C138.74 70.7609 140.121 70.8509 141.531 70.5509C142.791 70.2809 144.071 70.1509 145.361 70.0309C146.761 69.9009 148.161 69.4409 149.551 70.1809C149.931 70.3809 150.651 69.9709 151.811 69.2209C153.481 70.2209 155.17 69.1209 157.07 69.3409C158.02 70.7509 159.571 69.2209 160.951 69.7909C162.211 70.3209 163.671 70.3709 165.051 70.6309C165.561 71.3109 166.07 71.9709 166.68 72.7709C166.56 73.1909 166.421 73.7309 166.251 74.3209C166.431 74.5509 166.66 74.8609 166.9 75.1809C166.79 75.2809 166.681 75.4609 166.581 75.4509C165.761 75.3709 164.95 75.2209 164.13 75.1509C163.86 75.1209 163.53 75.1609 163.29 75.2909C162.18 75.8709 161.09 76.4809 159.93 77.1209C158.7 76.8109 157.381 76.4709 155.971 76.1209C155.191 76.8709 154.49 77.5509 153.76 78.2409C153.08 78.3409 152.37 78.4509 151.62 78.5609C150.59 78.2209 149.52 77.8709 148.32 77.4709C148.07 77.6209 147.731 77.8609 147.361 78.0109C146.721 78.2709 146.07 78.5809 145.4 78.6909C142.72 79.1309 140.031 79.5109 137.331 79.9109C136.781 79.7209 136.25 79.5309 135.77 79.3609C132.08 79.6809 128.481 80.7409 124.441 80.4509C124.441 80.4509 124.101 80.7109 123.671 81.0509C123.181 80.9009 122.65 80.7409 121.82 80.4809C120.99 80.6009 119.87 80.7809 118.74 80.9409C117.46 81.1209 116.171 81.2009 114.921 81.4809C113.891 81.7109 112.79 80.7109 111.84 81.7109C110.6 80.9509 109.331 81.6109 108.081 81.6509C106.971 81.6709 105.81 82.2309 104.98 81.3409Z" fill="#FFAFF3"/>
    <path d="M21.9905 145.431C21.4405 145.171 21.0705 144.991 20.7105 144.821C20.2305 145.401 19.7805 145.951 19.3305 146.501C18.9305 146.321 18.5605 146.151 18.0405 145.911C17.0805 146.561 16.0505 147.261 15.0205 147.961C14.6305 147.421 14.2305 146.861 13.7505 146.201C14.0205 145.411 14.3405 144.511 14.5305 143.941C14.8405 143.541 14.9105 143.401 15.0205 143.321C17.2905 141.671 19.6005 140.111 21.4405 137.891C22.5805 136.511 24.2405 135.571 25.6905 134.461C26.9205 133.521 28.2605 132.721 29.1705 131.401C29.4805 130.951 29.9405 130.591 30.3805 130.261C32.7305 128.471 34.9505 126.551 37.1905 124.631C39.3205 122.811 41.4905 121.021 43.6305 119.201C46.4005 116.831 49.3405 114.641 52.0705 112.221C55.9605 108.771 60.1805 105.711 63.9105 102.061C65.4105 100.591 66.8505 99.0409 68.4405 97.6509C70.0305 96.2609 71.4005 94.6109 72.7705 92.9809C73.8005 91.7609 74.9205 90.7709 76.5405 90.3909C78.0905 91.6609 79.3905 93.0709 80.4905 94.8009C80.3605 96.0309 80.2205 97.4009 80.0105 99.4009C79.1405 100.761 77.9405 102.681 75.9905 103.981C75.5105 105.191 73.7305 105.311 73.6005 106.811C72.6005 107.581 71.5705 108.311 70.6205 109.131C69.6605 109.961 68.7905 110.871 67.8805 111.751C67.5705 112.051 67.3305 112.431 66.9705 112.631C63.8805 114.361 61.4905 117.011 58.6205 119.021C57.1305 120.071 55.7305 121.211 54.5105 122.591C53.3605 123.901 51.8205 124.591 50.1105 124.741C49.7205 125.531 49.4705 126.361 48.9605 126.971C48.4305 127.601 47.6305 128.001 46.9305 128.501C46.7005 128.401 46.4405 128.281 46.1605 128.161C45.6005 128.531 45.0305 128.901 44.3505 129.361C44.3605 131.341 42.6705 132.091 41.2505 132.901C40.3105 133.431 39.0405 133.231 38.1705 134.181C37.4205 135.001 36.4805 135.651 35.6005 136.411C34.1605 136.691 32.6905 137.021 31.7605 138.401C31.9405 138.631 32.1205 138.851 32.3205 139.111C31.4405 139.981 30.2205 139.631 29.2405 140.051C26.3705 141.291 24.5705 144.001 21.9905 145.431Z" fill="#FFAFF3"/>
    <path d="M15.4005 40.6309C15.1605 40.0609 15.0005 39.6609 14.8205 39.2309C14.4805 39.0209 14.1305 38.6309 13.7505 38.5909C10.9705 38.2709 9.51049 36.5709 8.78049 34.0409C8.75049 33.9209 8.60048 33.8309 8.50048 33.7309C7.05048 33.0609 7.05049 33.0609 5.31049 33.1809C4.01049 32.2209 3.56049 30.6809 2.70049 29.4509C1.85049 28.2209 1.07049 26.9009 0.000488281 25.8509C0.220488 25.5409 0.340488 25.2009 0.550488 25.1309C1.76049 24.7109 2.99049 24.3509 4.08049 24.0209C4.79049 24.4509 5.35049 24.8409 5.96049 25.1309C6.46049 25.3709 7.24048 25.3109 7.50048 25.6709C8.22048 26.6609 9.42049 26.7309 10.2805 27.3909C10.5805 27.6209 10.6705 28.1309 10.8605 28.5309C14.0905 29.3209 16.7105 31.2509 19.3405 33.3909C19.5005 33.7809 19.7205 34.3009 19.9405 34.8109C22.3005 35.0209 24.1105 36.4309 26.0105 37.6109C26.8405 38.1309 27.5305 38.9109 28.4105 39.3209C32.0205 41.0409 34.9105 43.8109 38.2405 45.9409C39.6805 47.7609 42.0205 48.4109 43.5605 50.0709C45.0505 51.6709 47.0405 52.5009 48.8405 53.6209C49.0805 53.7709 49.3605 53.8809 49.5705 54.0709C52.5505 56.6809 55.7805 58.9509 59.0405 61.1909C60.1805 61.9709 61.0505 63.1609 62.1305 64.2409C62.1405 65.2309 62.1505 66.3409 62.1705 67.8109C61.6605 69.7509 60.2505 71.4609 58.1805 72.9809C57.3805 72.9309 56.4105 72.8609 55.2205 72.7809C55.0205 72.4009 54.8805 71.7709 54.4905 71.4609C52.7105 70.0909 51.3405 68.2509 49.4405 67.0209C48.7305 66.5609 47.9305 66.1509 47.3905 65.5209C46.0705 64.0009 44.5505 62.7909 42.9105 62.1809C42.5005 61.4109 42.2405 60.9109 42.1605 60.7409C40.6605 59.5609 39.4305 58.6109 38.2305 57.6409C35.8305 55.7009 32.9805 54.3209 31.0305 51.8209C28.9105 50.9409 27.5805 48.8909 25.4105 48.0909C22.6705 45.6709 19.2705 44.1109 16.6705 41.4809C16.2705 41.0909 15.7305 40.8509 15.4005 40.6309Z" fill="#FFAFF3"/>
    <path d="M85.3905 148.781C85.0205 149.651 84.7005 150.421 84.3905 151.141C83.2805 151.661 82.4105 151.361 81.3905 150.191C81.2005 149.331 80.9405 148.101 80.6505 146.771C79.7905 146.331 78.9505 145.891 78.0505 145.431C78.2105 144.781 78.3705 144.121 78.5305 143.471C78.3205 142.501 77.3205 142.311 76.6605 141.471C76.4405 140.001 76.1905 138.311 75.9205 136.451C76.0605 136.001 76.2705 135.361 76.4705 134.731C75.5105 134.351 74.7505 134.061 73.9005 133.721C73.5705 132.311 73.2405 130.941 72.8505 129.281C72.3105 128.471 71.6105 127.431 70.8105 126.241C70.6405 124.871 70.0005 123.481 69.4405 122.031C67.3905 116.681 65.6405 111.211 62.7905 106.201C62.4505 103.091 59.8305 101.151 58.7005 98.4209C58.2605 97.3409 56.9205 96.6309 56.0705 95.8209C55.6705 94.7009 55.3005 93.6509 54.8505 92.3909C55.9805 89.4509 58.8905 88.2509 61.6905 86.9309C62.3605 87.1409 63.0305 87.3609 63.8805 87.6309C65.0105 89.2009 66.2505 90.9109 67.4705 92.6309C68.7005 94.3609 69.5805 96.3509 69.9905 98.3309C70.3505 100.051 71.6005 101.341 71.7305 103.061C73.5505 105.271 73.6605 108.301 75.3205 110.601C75.5505 110.921 75.6105 111.421 75.6205 111.841C75.6705 114.741 77.7305 117.111 77.7905 120.011C79.4105 121.321 78.5805 123.581 79.7605 125.051C80.8605 126.421 80.1305 128.511 81.6505 129.691C81.9705 131.521 82.2705 133.361 82.6105 135.181C82.8405 136.421 82.7505 137.751 83.7605 138.771C84.0105 139.031 84.0105 139.571 84.0705 139.981C84.5205 142.821 84.9305 145.651 85.3905 148.781Z" fill="#FFAFF3"/>
    <path d="M91.5605 0.000938416C92.5605 0.380938 93.2105 0.630936 93.8605 0.880936C94.5005 1.79094 94.2605 2.72093 93.9205 3.66093C94.1005 3.88093 94.2905 4.10094 94.4705 4.32094C94.1705 5.25094 93.8705 6.19094 93.5605 7.15094C93.7005 7.32094 94.0805 7.59094 94.0405 7.75094C93.4505 10.0309 94.0905 12.4909 93.0305 14.6709C92.6005 15.5609 93.0505 16.3409 93.0505 17.1609C93.0505 18.0009 92.3605 18.7109 92.6305 19.6409C92.7805 20.1609 92.7305 20.7709 92.6205 21.3109C92.4205 22.2409 92.0905 23.1409 91.8205 24.0609C92.8405 24.9509 91.6305 25.8309 91.7505 26.7909C91.8505 27.6209 91.0705 28.5709 90.6305 29.5809C91.3705 30.9009 90.3805 32.2109 90.2705 33.6009C90.1105 35.6909 89.7805 37.7809 88.9505 39.7309C88.1005 41.7009 88.4505 43.8609 87.9005 45.8909C87.0905 48.8409 86.6405 51.8809 85.9405 54.8609C84.9505 59.0709 82.8905 62.7509 79.8405 65.9609C78.2105 66.2009 76.5305 66.4509 74.5205 66.7509C73.8505 66.2709 73.0505 65.7009 72.3505 65.2009C72.8305 62.9409 73.1305 61.1009 74.0705 59.2809C75.3405 56.8409 76.4805 54.2909 76.7205 51.3809C76.8805 49.4709 77.8205 47.6109 78.5005 45.7609C79.0405 44.3009 79.4805 42.8709 79.4205 41.2509C79.3805 40.3109 79.7705 39.3309 80.0705 38.4109C80.6205 36.6709 81.2405 34.9509 81.9005 32.9909C82.1305 32.8009 82.5605 32.4609 83.1305 32.0009C82.9405 31.5609 82.7405 31.0709 82.4505 30.3909C82.4505 30.3809 82.4705 30.1209 82.5405 29.8809C82.7505 29.2209 83.0905 28.5809 83.2005 27.9109C83.3905 26.7509 84.1505 25.8809 84.5605 24.8509C84.9005 24.0009 84.8305 22.9809 85.0405 21.2509C85.0105 20.9409 83.2005 20.4709 84.4605 18.5809C84.4005 18.6309 84.8205 18.2809 85.2505 17.9209C85.0705 17.7009 84.8905 17.4709 84.6905 17.2209C85.0605 16.2309 85.2705 15.2009 85.8105 14.1909C86.9205 12.1109 88.0605 9.92094 87.3605 7.32094C87.7805 6.64094 88.2305 5.92093 88.6905 5.16093C88.5805 4.05093 88.4605 2.93093 88.3505 1.84093C88.6305 1.42093 88.8705 1.06094 89.2505 0.490936C89.8605 0.370936 90.6805 0.190938 91.5605 0.000938416Z" fill="#FFAFF3"/>
  </g>
  <defs>
    <clipPath id="clip0_442_3046">
      <rect width="166.902" height="151.387" fill="white"/>
    </clipPath>
  </defs>
</svg>

<svg xmlns="http://www.w3.org/2000/svg" width="16" height="16" fill="none" viewBox="0 0 167 152"><g fill="#FFAFF3" clip-path="url(#a)"><path d="M104.98 81.34c-1.36.52-2.099.93-2.899 1.08-2.25.43-4.52.72-6.77 1.15-.78.15-1.5.69-2.28.76-.8.07-1.63-.21-2.78-.39-.51-.41-1.29-1.04-2.18-1.75.32-1.34.97-2.67.41-3.97.77-1.49 1.47-2.86 2.24-4.35 1.28-.21 2.55-.38 3.79-.62.97-.19 1.91-.34 2.8-.94 1.09-.74 2.37-.88 3.429-.35.94-.31 1.85-.95 2.47-.74 1.3.44 2.52.29 3.78.14 1.54-.18 3.06-.71 4.6.08.33.17.841-.02 1.271-.07 1.42-.17 2.889-.67 4.239-.44 1.29.22 2.51.17 3.78.17.68 0 1.36.23 2.1.37.81-.36 1.691-.74 2.631-1.16.79.45 1.529.86 2.269 1.28.79-1.03 2.121-1.39 3.061-1.03 1.33.51 2.51.17 3.76.18.55 0 1.1.18 1.83.3.16-.11.499-.33.989-.66 1.22.38 2.601.47 4.011.17 1.26-.27 2.54-.4 3.83-.52 1.4-.13 2.8-.59 4.19.15.38.2 1.1-.21 2.26-.96 1.67 1 3.359-.1 5.259.12.95 1.41 2.501-.12 3.881.45 1.26.53 2.72.58 4.1.84.51.68 1.019 1.34 1.629 2.14-.12.42-.259.96-.429 1.55.18.23.409.54.649.86-.11.1-.219.28-.319.27-.82-.08-1.631-.23-2.451-.3-.27-.03-.6.01-.84.14-1.11.58-2.2 1.19-3.36 1.83-1.23-.31-2.549-.65-3.959-1-.78.75-1.481 1.43-2.211 2.12-.68.1-1.39.21-2.14.32-1.03-.34-2.1-.69-3.3-1.09-.25.15-.589.39-.959.54-.64.26-1.291.57-1.961.68-2.68.44-5.369.82-8.069 1.22-.55-.19-1.081-.38-1.561-.55-3.69.32-7.289 1.38-11.329 1.09 0 0-.34.26-.77.6-.49-.15-1.021-.31-1.851-.57-.83.12-1.95.3-3.08.46-1.28.18-2.569.26-3.819.54-1.03.23-2.131-.77-3.081.23-1.24-.76-2.509-.1-3.759-.06-1.11.02-2.271.58-3.101-.31m-82.99 64.091c-.55-.26-.92-.44-1.28-.61-.48.58-.93 1.13-1.38 1.68-.4-.18-.77-.35-1.29-.59-.96.65-1.99 1.35-3.02 2.05-.39-.54-.79-1.1-1.27-1.76.27-.79.59-1.69.78-2.26.31-.4.38-.54.49-.62 2.27-1.65 4.58-3.21 6.42-5.43 1.14-1.38 2.8-2.32 4.25-3.43 1.23-.94 2.57-1.74 3.48-3.06.31-.45.77-.81 1.21-1.14 2.35-1.79 4.57-3.71 6.81-5.63 2.13-1.82 4.3-3.61 6.44-5.43 2.77-2.37 5.71-4.56 8.44-6.98 3.89-3.45 8.11-6.51 11.84-10.16 1.5-1.47 2.94-3.02 4.53-4.41s2.96-3.04 4.33-4.67c1.03-1.22 2.15-2.21 3.77-2.59 1.55 1.27 2.85 2.68 3.95 4.41-.13 1.23-.27 2.6-.48 4.6-.87 1.36-2.07 3.28-4.02 4.58-.48 1.21-2.26 1.33-2.39 2.83-1 .77-2.03 1.5-2.98 2.32-.96.83-1.83 1.74-2.74 2.62-.31.3-.55.68-.91.88-3.09 1.73-5.48 4.38-8.35 6.39-1.49 1.05-2.89 2.19-4.11 3.57-1.15 1.31-2.69 2-4.4 2.15-.39.79-.64 1.62-1.15 2.23-.53.63-1.33 1.03-2.03 1.53-.23-.1-.49-.22-.77-.34-.56.37-1.13.74-1.81 1.2.01 1.98-1.68 2.73-3.1 3.54-.94.53-2.21.33-3.08 1.28-.75.82-1.69 1.47-2.57 2.23-1.44.28-2.91.61-3.84 1.99.18.23.36.45.56.71-.88.87-2.1.52-3.08.94-2.87 1.24-4.67 3.95-7.25 5.38M15.4 40.63c-.24-.57-.4-.97-.58-1.4-.34-.21-.69-.6-1.07-.64-2.78-.32-4.24-2.02-4.97-4.55-.03-.12-.18-.21-.28-.31-1.45-.67-1.45-.67-3.19-.55-1.3-.96-1.75-2.5-2.61-3.73-.85-1.23-1.63-2.55-2.7-3.6.22-.31.34-.65.55-.72 1.21-.42 2.44-.78 3.53-1.11.71.43 1.27.82 1.88 1.11.5.24 1.28.18 1.54.54.72.99 1.92 1.06 2.78 1.72.3.23.39.74.58 1.14 3.23.79 5.85 2.72 8.48 4.86.16.39.38.91.6 1.42 2.36.21 4.17 1.62 6.07 2.8.83.52 1.52 1.3 2.4 1.71 3.61 1.72 6.5 4.49 9.83 6.62 1.44 1.82 3.78 2.47 5.32 4.13 1.49 1.6 3.48 2.43 5.28 3.55.24.15.52.26.73.45 2.98 2.61 6.21 4.88 9.47 7.12 1.14.78 2.01 1.97 3.09 3.05.01.99.02 2.1.04 3.57-.51 1.94-1.92 3.65-3.99 5.17-.8-.05-1.77-.12-2.96-.2-.2-.38-.34-1.01-.73-1.32-1.78-1.37-3.15-3.21-5.05-4.44-.71-.46-1.51-.87-2.05-1.5-1.32-1.52-2.84-2.73-4.48-3.34-.41-.77-.67-1.27-.75-1.44-1.5-1.18-2.73-2.13-3.93-3.1-2.4-1.94-5.25-3.32-7.2-5.82-2.12-.88-3.45-2.93-5.62-3.73-2.74-2.42-6.14-3.98-8.74-6.61-.4-.39-.94-.63-1.27-.85"/><path d="M85.39 148.781c-.37.87-.69 1.64-1 2.36-1.11.52-1.98.22-3-.95-.19-.86-.45-2.09-.74-3.42-.86-.44-1.7-.88-2.6-1.34l.48-1.96c-.21-.97-1.21-1.16-1.87-2-.22-1.47-.47-3.16-.74-5.02.14-.45.35-1.09.55-1.72-.96-.38-1.72-.67-2.57-1.01-.33-1.41-.66-2.78-1.05-4.44-.54-.81-1.24-1.85-2.04-3.04-.17-1.37-.81-2.76-1.37-4.21-2.05-5.35-3.8-10.82-6.65-15.83-.34-3.11-2.96-5.05-4.09-7.78-.44-1.08-1.78-1.79-2.63-2.6-.4-1.12-.77-2.17-1.22-3.43 1.13-2.94 4.04-4.14 6.84-5.46.67.21 1.34.43 2.19.7 1.13 1.57 2.37 3.28 3.59 5 1.23 1.73 2.11 3.72 2.52 5.7.36 1.72 1.61 3.01 1.74 4.73 1.82 2.21 1.93 5.24 3.59 7.54.23.32.29.82.3 1.24.05 2.9 2.11 5.27 2.17 8.17 1.62 1.31.79 3.57 1.97 5.04 1.1 1.37.37 3.46 1.89 4.64.32 1.83.62 3.67.96 5.49.23 1.24.14 2.57 1.15 3.59.25.26.25.8.31 1.21.45 2.84.86 5.67 1.32 8.8M91.56 0c1 .38 1.65.63 2.3.88.64.91.4 1.84.06 2.78.18.22.37.44.55.66-.3.93-.6 1.87-.91 2.83.14.17.52.44.48.6-.59 2.28.05 4.74-1.01 6.92-.43.89.02 1.67.02 2.49 0 .84-.69 1.55-.42 2.48.15.52.1 1.13-.01 1.67-.2.93-.53 1.83-.8 2.75 1.02.89-.19 1.77-.07 2.73.1.83-.68 1.78-1.12 2.79.74 1.32-.25 2.63-.36 4.02-.16 2.09-.49 4.18-1.32 6.13-.85 1.97-.5 4.13-1.05 6.16-.81 2.95-1.26 5.99-1.96 8.97-.99 4.21-3.05 7.89-6.1 11.1-1.63.24-3.31.49-5.32.79-.67-.48-1.47-1.05-2.17-1.55.48-2.26.78-4.1 1.72-5.92 1.27-2.44 2.41-4.99 2.65-7.9.16-1.91 1.1-3.77 1.78-5.62.54-1.46.98-2.89.92-4.51-.04-.94.35-1.92.65-2.84.55-1.74 1.17-3.46 1.83-5.42.23-.19.66-.53 1.23-.99-.19-.44-.39-.93-.68-1.61 0-.01.02-.27.09-.51.21-.66.55-1.3.66-1.97.19-1.16.95-2.03 1.36-3.06.34-.85.27-1.87.48-3.6-.03-.31-1.84-.78-.58-2.67l.79-.66c-.18-.22-.36-.45-.56-.7.37-.99.58-2.02 1.12-3.03 1.11-2.08 2.25-4.27 1.55-6.87.42-.68.87-1.4 1.33-2.16-.11-1.11-.23-2.23-.34-3.32l.9-1.35c.61-.12 1.43-.3 2.31-.49"/></g><defs><clipPath id="a"><path fill="#fff" d="M0 0h166.902v151.387H0z"/></clipPath></defs></svg>
